**kern	**kern	**kern	**kern
*staff3	*staff4	*staff1	*staff2
*clefF4	*clefF4	*clefG2	*clefG2
*k[f#c#]	*k[f#c#]	*k[f#c#]	*k[f#c#]
*M2/4	*M2/4	*M2/4	*M2/4
*D:	*D:	*D:	*D:
=-	=-	=-	=-
*	*	*clefG2	*
2r	12r	(4a 4ff#	2r
.	(12DDL	.	.
.	12FF#'J)	.	.
.	12r	4g 4ee	.
.	(12AAL	.	.
.	12C#'J)	.	.
=325	=325	=325	=325
2r	12r	8f#') 8dd'	2r
.	(12DL	.	.
.	.	8r	.
.	12F#J)	.	.
.	8A'	12r	.
.	.	(12dL	.
.	8r	.	.
.	.	12cc'J)	.
=326	=326	=326	=326
2r	8G' 8d'	12r	2r
.	.	(12bL	.
.	8r	.	.
.	.	12dd'J)	.
.	8G' 8B' 8d'	12r	.
.	.	(12ggL	.
.	8r	.	.
.	.	12bb'J)	.
=327	=327	=327	=327
2r	8D'L 8d'	12r	2r
.	.	(12ff#L	.
.	8D'J 8d'	.	.
.	.	12aa'J)	.
.	4r	8a'L 8aa'	.
.	.	8a'J 8aa'	.
=328	=328	=328	=328
2r	12r	(4d 4f#	2A
.	(12DDL	.	.
.	12AA'J)	.	.
.	12r	4f# 4a	.
.	(12DL	.	.
.	12AA'J)	.	.
=329	=329	=329	=329
2r	12r	4e) 4g	4A
.	(12C#L	.	.
.	12AA'J)	.	.
.	8CC#' 8AA'	12r	4r
.	.	(12aL	.
.	8r	.	.
.	.	12gg'J)	.
=330	=330	=330	=330
2r	8DD' 8AA'	12r	2r
.	.	(12ff#L	.
.	8r	.	.
.	.	12dd'J)	.
.	8FF#' 8D'	12r	.
.	.	(12aaL	.
.	8r	.	.
.	.	12ff#'J)	.
=331	=331	=331	=331
2r	8AA'L 8A'	12r	2r
.	.	(12eeL	.
.	8AA'J 8A'	.	.
.	.	12cc#'J)	.
.	4r	8a'L 8aa'	.
.	.	8a'J 8aa'	.
=332:|!|:	=332:|!|:	=332:|!	=332:|!|:
*-	*-	*-	*-
